public/images/quality/quality-bg.svg

<svg width="1920" height="800" fill="none" xmlns="http://www.w3.org/2000/svg"><g clip-path="url(#a)"><g clip-path="url(#b)"><path d="M774.013 768.796c8.753 11.802 20.708 19.455 35.882 23.007 15.158 3.536 35.883 5.312 62.142 5.312L872.924 913c-56.607 0-101.243-2.805-133.907-8.416-32.68-5.594-61.419-22.261-86.2-49.983-24.814-27.722-38.083-72.226-39.824-133.58V557.362c-.591-29.482-9.623-48.804-27.129-57.951-17.506-9.13-45.506-13.712-84.033-13.712h-.87l.87-30.079-.87-29.199h.87c26.259 0 46.968-1.61 62.142-4.864 15.158-3.237 27.129-10.176 35.882-20.783 8.753-10.608 13.138-26.544 13.138-47.775v-162.78c1.741-60.739 15.01-104.978 39.824-132.717 24.781-27.722 53.52-44.239 86.2-49.534C771.681 2.656 816.317 0 872.924 0l-.887 114.125c-26.243 0-46.967 1.76-62.142 5.312-15.174 3.536-27.129 11.354-35.882 23.439-8.753 12.102-13.121 30.245-13.121 54.415v161.9c-2.332 44.239-20.134 76.393-53.389 96.429 33.271 20.053 51.057 52.506 53.389 97.326v161.9c0 24.186 4.368 42.18 13.121 53.966" fill="#fff"/></g><g clip-path="url(#c)"><path d="M1105.22 774.953c8.92 12.035 21.1 19.839 36.56 23.461 15.45 3.606 36.57 5.417 63.32 5.417L1206 922c-57.67 0-103.15-2.861-136.44-8.582-33.29-5.705-62.58-22.7-87.826-50.968-25.283-28.269-38.804-73.651-40.577-136.214V559.35c-.603-30.063-9.806-49.766-27.643-59.093-17.837-9.31-46.367-13.982-85.622-13.982h-.887l.887-30.672-.887-29.775h.887c26.756 0 47.856-1.642 63.317-4.96 15.444-3.301 27.643-10.376 36.561-21.193 8.919-10.816 13.387-27.067 13.387-48.717V184.97c1.773-61.937 15.294-107.049 40.577-135.334 25.246-28.269 54.536-45.111 87.826-50.51C1102.85-6.293 1148.33-9 1206-9l-.9 116.375c-26.74 0-47.85 1.794-63.32 5.417-15.46 3.605-27.64 11.578-36.56 23.901-8.92 12.34-13.37 30.842-13.37 55.488v165.091c-2.37 45.112-20.51 77.9-54.4 98.331 33.91 20.448 52.03 53.541 54.4 99.244v165.092c0 24.663 4.45 43.012 13.37 55.031" fill="#fff"/></g><g clip-path="url(#d)"><path d="M1324.02 952.145c13.88 18.732 32.84 30.877 56.91 36.515 24.03 5.612 56.9 8.431 98.54 8.431l1.41 183.919c-89.77 0-160.56-4.45-212.36-13.36-51.82-8.87-97.4-35.33-136.7-79.32-39.35-44-60.39-114.634-63.15-212.009V616.576c-.94-46.79-15.26-77.457-43.03-91.974-27.758-14.49-72.162-21.761-133.26-21.761H891l1.38-47.739-1.38-46.343h1.38c41.644 0 74.484-2.555 98.548-7.719 24.042-5.138 43.022-16.15 56.902-32.985 13.88-16.835 20.84-42.127 20.84-75.824V33.883c2.76-96.4 23.8-166.612 63.15-210.636 39.3-43.998 84.88-70.212 136.7-78.617 51.8-8.43 122.59-12.646 212.36-12.646l-1.41 181.129c-41.61 0-74.48 2.793-98.54 8.43-24.07 5.612-43.03 18.021-56.91 37.201-13.88 19.206-20.81 48.002-20.81 86.362v256.952c-3.69 70.212-31.93 121.244-84.66 153.044 52.76 31.826 80.97 83.332 84.66 154.466V866.52c0 38.386 6.93 66.945 20.81 85.651" fill="#fff"/></g><path fill="#fff" d="M1753 0h167v913h-167z"/><g clip-path="url(#e)"><path d="M645.017 768.796c8.753 11.802 20.709 19.455 35.883 23.007 15.158 3.536 35.882 5.312 62.141 5.312L743.928 913c-56.607 0-101.243-2.805-133.906-8.416-32.681-5.594-61.419-22.261-86.201-49.983-24.813-27.722-38.083-72.226-39.823-133.58V557.362c-.592-29.482-9.624-48.804-27.13-57.951-17.506-9.13-45.506-13.712-84.032-13.712h-.871l.871-30.079-.871-29.199h.871c26.259 0 46.967-1.61 62.141-4.864 15.158-3.237 27.13-10.176 35.883-20.783 8.753-10.608 13.138-26.544 13.138-47.775v-162.78c1.74-60.739 15.01-104.978 39.823-132.717 24.782-27.722 53.52-44.239 86.201-49.534C642.685 2.656 687.321 0 743.928 0l-.887 114.125c-26.242 0-46.967 1.76-62.141 5.312-15.174 3.536-27.13 11.354-35.883 23.439-8.753 12.102-13.121 30.245-13.121 54.415v161.9c-2.332 44.239-20.134 76.393-53.389 96.429 33.272 20.053 51.057 52.506 53.389 97.326v161.9c0 24.186 4.368 42.18 13.121 53.966" fill="#fff"/></g><g clip-path="url(#f)"><path d="M553.59 768.796c8.753 11.802 20.708 19.455 35.882 23.007 15.158 3.536 35.883 5.312 62.142 5.312L652.501 913c-56.608 0-101.243-2.805-133.907-8.416-32.68-5.594-61.419-22.261-86.2-49.983-24.814-27.722-38.083-72.226-39.824-133.58V557.362c-.591-29.482-9.624-48.804-27.13-57.951-17.506-9.13-45.506-13.712-84.032-13.712h-.87l.87-30.079-.87-29.199h.87c26.259 0 46.967-1.61 62.142-4.864 15.157-3.237 27.129-10.176 35.882-20.783 8.753-10.608 13.138-26.544 13.138-47.775v-162.78c1.741-60.739 15.01-104.978 39.824-132.717 24.781-27.722 53.52-44.239 86.2-49.534C551.258 2.656 595.893 0 652.501 0l-.887 114.125c-26.243 0-46.968 1.76-62.142 5.312-15.174 3.536-27.129 11.354-35.882 23.439-8.753 12.102-13.122 30.245-13.122 54.415v161.9c-2.332 44.239-20.133 76.393-53.388 96.429 33.271 20.053 51.056 52.506 53.388 97.326v161.9c0 24.186 4.369 42.18 13.122 53.966" fill="#fff"/></g><g clip-path="url(#g)"><path d="M238.568 672.837c6.042 8.176 14.294 13.477 24.767 15.938 10.463 2.45 24.768 3.68 42.893 3.68l.612 80.277c-39.073 0-69.882-1.944-92.427-5.83-22.557-3.876-42.394-15.421-59.499-34.625-17.127-19.204-26.286-50.033-27.488-92.535V526.371c-.408-20.423-6.642-33.808-18.725-40.145-12.084-6.324-31.41-9.498-58.003-9.498h-.6l.6-20.837-.6-20.227h.6c18.125 0 32.42-1.116 42.893-3.369 10.462-2.243 18.726-7.049 24.767-14.398 6.042-7.348 9.068-18.387 9.068-33.095V272.04c1.202-42.076 10.361-72.721 27.488-91.937 17.105-19.204 36.942-30.646 59.499-34.314 22.545-3.68 53.354-5.519 92.427-5.519l-.612 79.057c-18.114 0-32.419 1.219-42.893 3.68-10.473 2.449-18.725 7.866-24.767 16.237-6.042 8.383-9.057 20.952-9.057 37.695v112.153c-1.61 30.645-13.897 52.92-36.851 66.799 22.965 13.891 35.241 36.373 36.851 67.421v112.153c0 16.754 3.015 29.219 9.057 37.384" fill="#fff"/></g></g><defs><clipPath id="a"><path fill="#fff" d="M0 0h1920v800H0z"/></clipPath><clipPath id="b"><path fill="#fff" transform="translate(628.707)" d="M0 0h192.87v913H0z"/></clipPath><clipPath id="c"><path fill="#fff" transform="translate(897.973)" d="M0 0h192.87v913H0z"/></clipPath><clipPath id="d"><path fill="#fff" transform="translate(1090)" d="M0 0h192.87v913H0z"/></clipPath><clipPath id="e"><path fill="#fff" transform="translate(435.837)" d="M0 0h192.87v913H0z"/></clipPath><clipPath id="f"><path fill="#fff" transform="translate(242.967)" d="M0 0h192.87v913H0z"/></clipPath><clipPath id="g"><path fill="#fff" transform="translate(50.098)" d="M0 0h192.87v913H0z"/></clipPath></defs></svg>

<svg width="1920" height="660" viewBox="0 0 1920 660" fill="none" xmlns="http://www.w3.org/2000/svg">
<g clip-path="url(#clip0_109_153)">
<g clip-path="url(#clip1_109_153)">
<path d="M774.013 768.796C782.766 780.598 794.721 788.251 809.895 791.803C825.053 795.339 845.778 797.115 872.037 797.115L872.924 913C816.317 913 771.681 910.195 739.017 904.584C706.337 898.99 677.598 882.323 652.817 854.601C628.003 826.879 614.734 782.375 612.993 721.021V557.362C612.402 527.88 603.37 508.558 585.864 499.411C568.358 490.281 540.358 485.699 501.831 485.699H500.961L501.831 455.62L500.961 426.421H501.831C528.09 426.421 548.799 424.811 563.973 421.557C579.131 418.32 591.102 411.381 599.855 400.774C608.608 390.166 612.993 374.23 612.993 352.999V190.219C614.734 129.48 628.003 85.241 652.817 57.5024C677.598 29.7804 706.337 13.2634 739.017 7.968C771.681 2.656 816.317 0 872.924 0L872.037 114.125C845.794 114.125 825.07 115.885 809.895 119.437C794.721 122.973 782.766 130.791 774.013 142.876C765.26 154.978 760.892 173.121 760.892 197.291V359.191C758.56 403.43 740.758 435.584 707.503 455.62C740.774 475.673 758.56 508.126 760.892 552.946V714.846C760.892 739.032 765.26 757.026 774.013 768.812" fill="white"/>
</g>
<g clip-path="url(#clip2_109_153)">
<path d="M1105.22 774.953C1114.14 786.988 1126.32 794.792 1141.78 798.414C1157.23 802.02 1178.34 803.831 1205.1 803.831L1206 922C1148.33 922 1102.85 919.139 1069.56 913.418C1036.27 907.713 1006.98 890.718 981.733 862.45C956.45 834.181 942.929 788.799 941.156 726.236V559.35C940.553 529.287 931.35 509.584 913.513 500.257C895.676 490.947 867.146 486.275 827.891 486.275H827.004L827.891 455.603L827.004 425.828H827.891C854.647 425.828 875.747 424.186 891.208 420.868C906.652 417.567 918.851 410.492 927.769 399.675C936.688 388.859 941.156 372.608 941.156 350.958V184.97C942.929 123.033 956.45 77.9215 981.733 49.6361C1006.98 21.3675 1036.27 4.52489 1069.56 -0.874908C1102.85 -6.29164 1148.33 -9 1206 -9L1205.1 107.375C1178.36 107.375 1157.24 109.169 1141.78 112.792C1126.32 116.397 1114.14 124.37 1105.22 136.693C1096.3 149.033 1091.85 167.535 1091.85 192.181V357.272C1089.48 402.384 1071.34 435.172 1037.45 455.603C1071.35 476.051 1089.48 509.144 1091.85 554.847V719.939C1091.85 744.602 1096.3 762.951 1105.22 774.97" fill="white"/>
</g>
<g clip-path="url(#clip3_109_153)">
<path d="M1324.02 952.145C1337.9 970.877 1356.86 983.022 1380.93 988.66C1404.96 994.272 1437.83 997.091 1479.47 997.091L1480.88 1181.01C1391.11 1181.01 1320.32 1176.56 1268.52 1167.65C1216.7 1158.78 1171.12 1132.32 1131.82 1088.33C1092.47 1044.33 1071.43 973.696 1068.67 876.321V616.576C1067.73 569.786 1053.41 539.119 1025.64 524.602C997.882 510.112 953.478 502.841 892.38 502.841H891L892.38 455.102L891 408.759H892.38C934.024 408.759 966.864 406.204 990.928 401.04C1014.97 395.902 1033.95 384.89 1047.83 368.055C1061.71 351.22 1068.67 325.928 1068.67 292.231V33.8827C1071.43 -62.5172 1092.47 -132.729 1131.82 -176.753C1171.12 -220.751 1216.7 -246.965 1268.52 -255.37C1320.32 -263.8 1391.11 -268.016 1480.88 -268.016L1479.47 -86.8872C1437.86 -86.8872 1404.99 -84.0945 1380.93 -78.4565C1356.86 -72.8448 1337.9 -60.4359 1324.02 -41.256C1310.14 -22.0498 1303.21 6.74634 1303.21 45.106V302.058C1299.52 372.27 1271.28 423.302 1218.55 455.102C1271.31 486.928 1299.52 538.434 1303.21 609.568V866.52C1303.21 904.906 1310.14 933.465 1324.02 952.171" fill="white"/>
</g>
<rect width="524" height="913" transform="translate(1396)" fill="white"/>
<g clip-path="url(#clip4_109_153)">
<path d="M645.017 768.796C653.77 780.598 665.725 788.251 680.899 791.803C696.057 795.339 716.782 797.115 743.041 797.115L743.928 913C687.32 913 642.685 910.195 610.021 904.584C577.341 898.99 548.602 882.323 523.821 854.601C499.007 826.879 485.738 782.375 483.997 721.021V557.362C483.406 527.88 474.374 508.558 456.868 499.411C439.362 490.281 411.362 485.699 372.835 485.699H371.965L372.835 455.62L371.965 426.421H372.835C399.094 426.421 419.803 424.811 434.977 421.557C450.135 418.32 462.106 411.381 470.859 400.774C479.612 390.166 483.997 374.23 483.997 352.999V190.219C485.738 129.48 499.007 85.241 523.821 57.5024C548.602 29.7804 577.341 13.2634 610.021 7.968C642.685 2.656 687.32 0 743.928 0L743.041 114.125C716.798 114.125 696.073 115.885 680.899 119.437C665.725 122.973 653.77 130.791 645.017 142.876C636.264 154.978 631.896 173.121 631.896 197.291V359.191C629.564 403.43 611.762 435.584 578.507 455.62C611.778 475.673 629.564 508.126 631.896 552.946V714.846C631.896 739.032 636.264 757.026 645.017 768.812" fill="white"/>
</g>
<g clip-path="url(#clip5_109_153)">
<path d="M553.591 768.796C562.344 780.598 574.299 788.251 589.474 791.803C604.631 795.339 625.356 797.115 651.615 797.115L652.502 913C595.895 913 551.259 910.195 518.595 904.584C485.915 898.99 457.176 882.323 432.395 854.601C407.581 826.879 394.312 782.375 392.571 721.021V557.362C391.98 527.88 382.948 508.558 365.442 499.411C347.936 490.281 319.936 485.699 281.409 485.699H280.539L281.409 455.62L280.539 426.421H281.409C307.669 426.421 328.377 424.811 343.551 421.557C358.709 418.32 370.681 411.381 379.434 400.774C388.187 390.166 392.571 374.23 392.571 352.999V190.219C394.312 129.48 407.581 85.241 432.395 57.5024C457.176 29.7804 485.915 13.2634 518.595 7.968C551.259 2.656 595.895 0 652.502 0L651.615 114.125C625.373 114.125 604.648 115.885 589.474 119.437C574.299 122.973 562.344 130.791 553.591 142.876C544.838 154.978 540.47 173.121 540.47 197.291V359.191C538.138 403.43 520.336 435.584 487.081 455.62C520.353 475.673 538.138 508.126 540.47 552.946V714.846C540.47 739.032 544.838 757.026 553.591 768.812" fill="white"/>
</g>
<g clip-path="url(#clip6_109_153)">
<path d="M238.568 672.836C244.61 681.012 252.862 686.313 263.335 688.774C273.798 691.224 288.103 692.454 306.228 692.454L306.84 772.731C267.767 772.731 236.958 770.787 214.413 766.901C191.856 763.025 172.019 751.48 154.914 732.276C137.787 713.072 128.628 682.243 127.426 639.741V526.37C127.018 505.947 120.784 492.562 108.701 486.225C96.6173 479.901 77.2908 476.727 50.6984 476.727H50.0977L50.6984 455.89L50.0977 435.663H50.6984C68.8234 435.663 83.1171 434.548 93.5908 432.294C104.053 430.051 112.317 425.245 118.358 417.896C124.4 410.548 127.426 399.509 127.426 384.801V272.039C128.628 229.963 137.787 199.318 154.914 180.102C172.019 160.898 191.856 149.457 214.413 145.788C236.958 142.108 267.767 140.269 306.84 140.269L306.228 219.326C288.114 219.326 273.809 220.545 263.335 223.006C252.862 225.455 244.61 230.872 238.568 239.243C232.526 247.626 229.511 260.195 229.511 276.938V389.091C227.901 419.736 215.614 442.011 192.66 455.89C215.625 469.781 227.901 492.263 229.511 523.311V635.464C229.511 652.218 232.526 664.683 238.568 672.848" fill="white"/>
</g>
</g>
<defs>
<clipPath id="clip0_109_153">
<rect width="1920" height="660" fill="white"/>
</clipPath>
<clipPath id="clip1_109_153">
<rect width="192.87" height="913" fill="white" transform="translate(628.707)"/>
</clipPath>
<clipPath id="clip2_109_153">
<rect width="192.87" height="913" fill="white" transform="translate(897.973)"/>
</clipPath>
<clipPath id="clip3_109_153">
<rect width="192.87" height="913" fill="white" transform="translate(1090)"/>
</clipPath>
<clipPath id="clip4_109_153">
<rect width="192.87" height="913" fill="white" transform="translate(435.836)"/>
</clipPath>
<clipPath id="clip5_109_153">
<rect width="192.87" height="913" fill="white" transform="translate(242.969)"/>
</clipPath>
<clipPath id="clip6_109_153">
<rect width="192.87" height="913" fill="white" transform="translate(50.0977)"/>
</clipPath>
</defs>
</svg>
